src/static/logos/pepperoni.svg

<?xml version="1.0" encoding="UTF-8" standalone="no"?>
<svg width="256px" height="245px" viewBox="0 0 256 245" version="1.1" xmlns="http://www.w3.org/2000/svg" xmlns:xlink="http://www.w3.org/1999/xlink" preserveAspectRatio="xMidYMid">
    <defs>
        <linearGradient x1="35.5377941%" y1="63.2007052%" x2="53.8769118%" y2="45.6117772%" id="linearGradient-1">
            <stop stop-color="#914F00" offset="19.81%"></stop>
            <stop stop-color="#9F5600" offset="33.48%"></stop>
            <stop stop-color="#B76200" offset="60.93%"></stop>
            <stop stop-color="#C66900" offset="84.08%"></stop>
            <stop stop-color="#CB6C00" offset="100%"></stop>
        </linearGradient>
        <linearGradient x1="22.2313187%" y1="75.3602029%" x2="97.8434066%" y2="-2.21251409%" id="linearGradient-2">
            <stop stop-color="#FBBA00" offset="0%"></stop>
            <stop stop-color="#FDC000" offset="6.471223%"></stop>
            <stop stop-color="#FFD500" offset="30.61%"></stop>
            <stop stop-color="#FFE300" offset="54.52%"></stop>
            <stop stop-color="#FFEB00" offset="77.87%"></stop>
            <stop stop-color="#FFED00" offset="100%"></stop>
        </linearGradient>
    </defs>
	<g>
		<path d="M53.9234043,76.2553191 C63.9455319,102.726809 79.0876596,126.910638 98.4782979,147.499574 C117.868936,168.088511 141.07234,184.646809 166.890213,196.302979 L255.237447,0 L53.9234043,76.2553191 L53.9234043,76.2553191 Z" fill="#D18F00"></path>
		<path d="M77.2357447,191.400851 C77.2357447,191.400851 77.2357447,191.291915 77.2357447,191.400851 C77.2357447,191.291915 77.2357447,191.291915 77.2357447,191.400851 C65.252766,179.417872 64.7080851,178.873191 52.8340426,166.999149 L52.8340426,166.999149 L52.7251064,166.999149 C25.4910638,157.521702 0,186.934468 0,244.125957 C57.9540426,244.779574 86.6042553,218.634894 77.2357447,191.400851 L77.2357447,191.400851 Z" fill="#E94F35"></path>
		<path d="M72.987234,187.15234 L72.987234,187.15234 C72.987234,187.043404 72.987234,187.043404 72.987234,187.15234 C65.252766,179.308936 64.8170213,178.982128 57.0825532,171.24766 L57.0825532,171.24766 L57.0825532,171.24766 C39.3259574,165.147234 22.7676596,184.211064 22.7676596,221.467234 C60.4595745,221.902979 79.0876596,204.8 72.987234,187.15234 L72.987234,187.15234 Z" fill="#F39200"></path>
		<polygon fill="#4B5B5C" points="95.3191489 222.120851 22.9855319 149.787234 50.0017021 138.24 106.866383 195.104681"></polygon>
		<path d="M106.866383,195.104681 L50.0017021,138.24 L40.306383,142.379574 C48.5855319,154.362553 57.7361702,165.691915 67.7582979,176.258723 C78.3251064,187.479149 89.6544681,197.719149 101.746383,207.08766 L106.866383,195.104681 L106.866383,195.104681 Z" fill="#3A4949"></path>
		<path d="M98.4782979,147.499574 C79.0876596,126.910638 63.9455319,102.726809 53.9234043,76.2553191 L18.6280851,89.6544681 C30.3931915,120.701277 48.1497872,149.133617 70.9174468,173.426383 C93.6851064,197.719149 121.028085,217.109787 151.31234,230.726809 L166.781277,196.302979 C141.07234,184.646809 117.76,168.088511 98.4782979,147.499574 L98.4782979,147.499574 Z" fill="url(#linearGradient-1)"></path>
		<path d="M56.973617,75.0570213 C66.8868085,101.092766 81.7021277,124.949787 100.765957,145.211915 C119.829787,165.474043 142.706383,181.814468 168.088511,193.252766 L255.237447,0 L56.973617,75.0570213 L56.973617,75.0570213 Z" fill="url(#linearGradient-2)"></path>
		<path d="M160.680851,35.84 C161.443404,47.6051064 171.24766,56.973617 183.230638,56.973617 C195.758298,56.973617 205.889362,46.8425532 205.889362,34.3148936 C205.889362,29.0859574 204.146383,24.292766 201.09617,20.48 L160.680851,35.84 L160.680851,35.84 Z" fill="#AA2322"></path>
		<path d="M222.774468,57.4093617 C214.604255,57.4093617 207.850213,64.0544681 207.850213,72.333617 C207.850213,78.3251064 211.445106,83.5540426 216.565106,85.8417021 L228.765957,58.7165957 C226.914043,57.8451064 224.844255,57.4093617 222.774468,57.4093617 L222.774468,57.4093617 Z" fill="#AA2322"></path>
		<ellipse fill="#441A0D" cx="180.61617" cy="47.4961702" rx="3.15914894" ry="3.15914894"></ellipse>
		<ellipse fill="#441A0D" cx="180.61617" cy="33.7702128" rx="3.15914894" ry="3.15914894"></ellipse>
		<ellipse fill="#D89687" cx="193.252766" cy="33.7702128" rx="3.15914894" ry="3.15914894"></ellipse>
		<circle fill="#D89687" cx="194.015319" cy="44.9906383" r="3.15914894"></circle>
		<ellipse fill="#D89687" cx="169.504681" cy="38.9991489" rx="3.15914894" ry="3.15914894"></ellipse>
		<circle fill="#441A0D" cx="213.732766" cy="66.4510638" r="2.06978723"></circle>
		<ellipse fill="#441A0D" cx="220.377872" cy="71.1353191" rx="2.06978723" ry="2.06978723"></ellipse>
		<ellipse fill="#D89687" cx="221.358298" cy="63.0740426" rx="2.06978723" ry="2.06978723"></ellipse>
		<circle fill="#D89687" cx="213.732766" cy="75.3838298" r="2.06978723"></circle>
		<ellipse fill="#AA2322" transform="translate(169.440507, 93.556997) rotate(-71.867645) translate(-169.440507, -93.556997) " cx="169.440507" cy="93.5569974" rx="22.6577664" ry="22.5488348"></ellipse>
		<ellipse fill="#441A0D" transform="translate(156.332304, 98.949697) rotate(-71.867645) translate(-156.332304, -98.949697) " cx="156.332304" cy="98.9496974" rx="3.15901551" ry="3.15901551"></ellipse>
		<ellipse fill="#441A0D" transform="translate(182.717527, 95.216030) rotate(-71.867645) translate(-182.717527, -95.216030) " cx="182.717527" cy="95.21603" rx="3.15901551" ry="3.15901551"></ellipse>
		<ellipse fill="#441A0D" transform="translate(165.382765, 77.871670) rotate(-71.867645) translate(-165.382765, -77.871670) " cx="165.382765" cy="77.8716705" rx="3.15901551" ry="3.15901551"></ellipse>
		<ellipse fill="#441A0D" transform="translate(169.687269, 90.984426) rotate(-71.867645) translate(-169.687269, -90.984426) " cx="169.687269" cy="90.9844262" rx="3.15901551" ry="3.15901551"></ellipse>
		<ellipse fill="#D89687" transform="translate(165.761841, 102.958995) rotate(-71.867645) translate(-165.761841, -102.958995) " cx="165.761841" cy="102.958995" rx="3.15901551" ry="3.15901551"></ellipse>
		<ellipse fill="#D89687" transform="translate(156.698700, 87.246924) rotate(-71.867645) translate(-156.698700, -87.246924) " cx="156.6987" cy="87.2469243" rx="3.15901551" ry="3.15901551"></ellipse>
		<ellipse fill="#D89687" transform="translate(176.131116, 107.261353) rotate(-71.867645) translate(-176.131116, -107.261353) " cx="176.131116" cy="107.261353" rx="3.15901551" ry="3.15901551"></ellipse>
		<ellipse fill="#D89687" transform="translate(178.138112, 82.094657) rotate(-71.867645) translate(-178.138112, -82.094657) " cx="178.138112" cy="82.0946574" rx="3.15901551" ry="3.15901551"></ellipse>
		<ellipse fill="#AA2322" transform="translate(106.190118, 86.202030) rotate(-64.106303) translate(-106.190118, -86.202030) " cx="106.190118" cy="86.2020303" rx="22.6585767" ry="22.6585767"></ellipse>
		<circle fill="#441A0D" transform="translate(119.334770, 80.482293) rotate(-64.106303) translate(-119.334770, -80.482293) " cx="119.33477" cy="80.4822931" r="3.15912848"></circle>
		<circle fill="#441A0D" transform="translate(98.038958, 97.007224) rotate(-64.106303) translate(-98.038958, -97.007224) " cx="98.0389583" cy="97.0072238" r="3.15912848"></circle>
		<ellipse fill="#441A0D" transform="translate(97.744645, 72.368760) rotate(-64.106303) translate(-97.744645, -72.368760) " cx="97.7446454" cy="72.3687598" rx="3.15912848" ry="3.15912848"></ellipse>
		<circle fill="#441A0D" transform="translate(104.138164, 84.470370) rotate(-64.106303) translate(-104.138164, -84.470370) " cx="104.138164" cy="84.47037" r="3.15912848"></circle>
		<ellipse fill="#D89687" transform="translate(115.506241, 90.066998) rotate(-64.106303) translate(-115.506241, -90.066998) " cx="115.506241" cy="90.0669985" rx="3.15912848" ry="3.15912848"></ellipse>
		<ellipse fill="#D89687" transform="translate(110.442540, 72.663857) rotate(-64.106303) translate(-110.442540, -72.663857) " cx="110.44254" cy="72.663857" rx="3.15912848" ry="3.15912848"></ellipse>
		<circle fill="#D89687" transform="translate(111.174362, 100.461023) rotate(-64.106303) translate(-111.174362, -100.461023) " cx="111.174362" cy="100.461023" r="3.15912848"></circle>
		<circle fill="#D89687" transform="translate(91.836906, 84.448049) rotate(-64.106303) translate(-91.836906, -84.448049) " cx="91.8369062" cy="84.448049" r="3.15912848"></circle>
		<ellipse fill="#AA2322" transform="translate(122.776249, 135.956545) rotate(-8.522267) translate(-122.776249, -135.956545) " cx="122.776249" cy="135.956545" rx="15.2517062" ry="15.2517062"></ellipse>
		<circle fill="#441A0D" transform="translate(127.785788, 127.787182) rotate(-8.522267) translate(-127.785788, -127.787182) " cx="127.785788" cy="127.787182" r="2.17881517"></circle>
		<circle fill="#441A0D" transform="translate(122.339916, 144.998444) rotate(-8.522267) translate(-122.339916, -144.998444) " cx="122.339916" cy="144.998444" r="2.17881517"></circle>
		<circle fill="#441A0D" transform="translate(112.753991, 131.491731) rotate(-8.522267) translate(-112.753991, -131.491731) " cx="112.753991" cy="131.491731" r="2.17881517"></circle>
		<circle fill="#441A0D" transform="translate(120.923005, 135.848524) rotate(-8.522267) translate(-120.923005, -135.848524) " cx="120.923005" cy="135.848524" r="2.17881517"></circle>
		<ellipse fill="#D89687" transform="translate(129.310393, 134.540375) rotate(-8.522267) translate(-129.310393, -134.540375) " cx="129.310393" cy="134.540375" rx="2.17881517" ry="2.17881517"></ellipse>
		<circle fill="#D89687" transform="translate(119.942732, 126.806909) rotate(-8.522267) translate(-119.942732, -126.806909) " cx="119.942732" cy="126.806909" r="2.17881517"></circle>
		<circle fill="#D89687" transform="translate(131.055616, 141.948340) rotate(-8.522267) translate(-131.055616, -141.948340) " cx="131.055616" cy="141.94834" r="2.17881517"></circle>
		<ellipse fill="#D89687" transform="translate(114.060070, 140.423473) rotate(-8.522267) translate(-114.060070, -140.423473) " cx="114.06007" cy="140.423473" rx="2.17881517" ry="2.17881517"></ellipse>
		<g transform="translate(153.600000, 132.902128)">
			<path d="M35.7310638,3.92170213 C25.1642553,-2.83234043 11.2204255,0.326808511 4.57531915,10.893617 C-2.1787234,21.4604255 0.980425532,35.4042553 11.547234,42.0493617 C14.5974468,44.0102128 17.9744681,45.0995745 21.4604255,45.426383 L39.1080851,6.31829787 C37.9097872,5.44680851 36.8204255,4.57531915 35.7310638,3.92170213 L35.7310638,3.92170213 Z" fill="#AA2322"></path>
			<ellipse fill="#441A0D" transform="translate(9.374622, 24.988421) rotate(-57.512988) translate(-9.374622, -24.988421) " cx="9.37462196" cy="24.9884214" rx="3.15909943" ry="3.15909943"></ellipse>
			<ellipse fill="#441A0D" transform="translate(23.386853, 6.645499) rotate(-57.512988) translate(-23.386853, -6.645499) " cx="23.3868528" cy="6.64549855" rx="3.15909943" ry="3.15909943"></ellipse>
			<circle fill="#441A0D" transform="translate(24.465430, 20.388733) rotate(-57.512988) translate(-24.465430, -20.388733) " cx="24.4654298" cy="20.3887333" r="3.15909943"></circle>
			<circle fill="#D89687" transform="translate(17.594466, 31.046209) rotate(-57.512988) translate(-17.594466, -31.046209) " cx="17.594466" cy="31.0462094" r="3.15909943"></circle>
			<ellipse fill="#D89687" transform="translate(12.770228, 13.682285) rotate(-57.512988) translate(-12.770228, -13.682285) " cx="12.7702277" cy="13.6822849" rx="3.15909943" ry="3.15909943"></ellipse>
			<path d="M23.9659574,36.0578723 C23.3123404,37.147234 23.3123404,38.4544681 23.9659574,39.4348936 L26.1446809,34.6417021 C25.2731915,34.7506383 24.5106383,35.2953191 23.9659574,36.0578723 L23.9659574,36.0578723 Z" fill="#D89687"></path>
			<path d="M36.493617,11.2204255 C34.9685106,10.24 33.0076596,10.6757447 32.1361702,12.2008511 C31.1557447,13.7259574 31.5914894,15.6868085 33.1165957,16.5582979 C33.4434043,16.7761702 33.7702128,16.8851064 34.0970213,16.9940426 L36.493617,11.2204255 C36.6025532,11.3293617 36.6025532,11.2204255 36.493617,11.2204255 L36.493617,11.2204255 Z" fill="#D89687"></path>
		</g>
		<path d="M192.381277,26.6893617 C194.124255,26.6893617 195.540426,25.2731915 195.540426,23.5302128 C195.540426,23.2034043 195.540426,22.9855319 195.431489,22.6587234 L189.548936,24.946383 C190.093617,25.9268085 191.182979,26.6893617 192.381277,26.6893617 L192.381277,26.6893617 Z" fill="#441A0D"></path>
	</g>
</svg>

<svg width="256" height="245" xmlns="http://www.w3.org/2000/svg" preserveAspectRatio="xMidYMid"><defs><linearGradient x1="35.538%" y1="63.201%" x2="53.877%" y2="45.612%" id="a"><stop stop-color="#914F00" offset="19.81%"/><stop stop-color="#9F5600" offset="33.48%"/><stop stop-color="#B76200" offset="60.93%"/><stop stop-color="#C66900" offset="84.08%"/><stop stop-color="#CB6C00" offset="100%"/></linearGradient><linearGradient x1="22.231%" y1="75.36%" x2="97.843%" y2="-2.213%" id="b"><stop stop-color="#FBBA00" offset="0%"/><stop stop-color="#FDC000" offset="6.471%"/><stop stop-color="#FFD500" offset="30.61%"/><stop stop-color="#FFE300" offset="54.52%"/><stop stop-color="#FFEB00" offset="77.87%"/><stop stop-color="#FFED00" offset="100%"/></linearGradient></defs><path d="M53.923 76.255A214.837 214.837 0 0098.478 147.5a215.972 215.972 0 0068.412 48.803L255.237 0 53.923 76.255z" fill="#D18F00"/><path d="M77.236 191.4s0-.108 0 0c0-.108 0-.108 0 0L52.834 167h-.109C25.491 157.521 0 186.933 0 244.125c57.954.654 86.604-25.491 77.236-52.725z" fill="#E94F35"/><path d="M72.987 187.152c0-.109 0-.109 0 0-7.734-7.843-8.17-8.17-15.904-15.904-17.757-6.1-34.315 12.963-34.315 50.22 37.692.435 56.32-16.668 50.22-34.316z" fill="#F39200"/><path fill="#4B5B5C" d="M95.32 222.12l-72.334-72.333 27.016-11.547 56.864 56.865z"/><path d="M106.866 195.105L50.002 138.24l-9.696 4.14c8.28 11.983 17.43 23.312 27.452 33.879 10.567 11.22 21.896 21.46 33.988 30.829l5.12-11.983z" fill="#3A4949"/><path d="M98.478 147.5a214.837 214.837 0 01-44.555-71.245l-35.295 13.4c11.765 31.046 29.522 59.479 52.29 83.771 22.767 24.293 50.11 43.684 80.394 57.3l15.47-34.423c-25.71-11.656-49.022-28.214-68.304-48.803z" fill="url(#a)"/><path d="M56.974 75.057c9.913 26.036 24.728 49.893 43.792 70.155a212.129 212.129 0 0067.323 48.04L255.237 0 56.974 75.057z" fill="url(#b)"/><path d="M160.68 35.84c.763 11.765 10.568 21.134 22.55 21.134 12.528 0 22.66-10.131 22.66-22.66 0-5.228-1.744-10.021-4.794-13.834l-40.415 15.36zm62.094 21.57c-8.17 0-14.924 6.644-14.924 14.924 0 5.991 3.595 11.22 8.715 13.508l12.201-27.125c-1.852-.872-3.922-1.308-5.992-1.308z" fill="#AA2322"/><circle fill="#441A0D" cx="180.616" cy="47.496" r="3.159"/><circle fill="#441A0D" cx="180.616" cy="33.77" r="3.159"/><circle fill="#D89687" cx="193.253" cy="33.77" r="3.159"/><circle fill="#D89687" cx="194.015" cy="44.991" r="3.159"/><circle fill="#D89687" cx="169.505" cy="38.999" r="3.159"/><circle fill="#441A0D" cx="213.733" cy="66.451" r="2.07"/><circle fill="#441A0D" cx="220.378" cy="71.135" r="2.07"/><circle fill="#D89687" cx="221.358" cy="63.074" r="2.07"/><circle fill="#D89687" cx="213.733" cy="75.384" r="2.07"/><ellipse fill="#AA2322" transform="rotate(-71.868 169.44 93.557)" cx="169.441" cy="93.557" rx="22.658" ry="22.549"/><circle fill="#441A0D" transform="rotate(-71.868 156.332 98.95)" cx="156.332" cy="98.95" r="3.159"/><circle fill="#441A0D" transform="rotate(-71.868 182.718 95.216)" cx="182.718" cy="95.216" r="3.159"/><circle fill="#441A0D" transform="rotate(-71.868 165.383 77.872)" cx="165.383" cy="77.872" r="3.159"/><circle fill="#441A0D" transform="rotate(-71.868 169.687 90.984)" cx="169.687" cy="90.984" r="3.159"/><circle fill="#D89687" transform="rotate(-71.868 165.762 102.959)" cx="165.762" cy="102.959" r="3.159"/><circle fill="#D89687" transform="rotate(-71.868 156.699 87.247)" cx="156.699" cy="87.247" r="3.159"/><circle fill="#D89687" transform="rotate(-71.868 176.131 107.261)" cx="176.131" cy="107.261" r="3.159"/><circle fill="#D89687" transform="rotate(-71.868 178.138 82.095)" cx="178.138" cy="82.095" r="3.159"/><circle fill="#AA2322" transform="rotate(-64.106 106.19 86.202)" cx="106.19" cy="86.202" r="22.659"/><circle fill="#441A0D" transform="rotate(-64.106 119.335 80.482)" cx="119.335" cy="80.482" r="3.159"/><circle fill="#441A0D" transform="rotate(-64.106 98.039 97.007)" cx="98.039" cy="97.007" r="3.159"/><circle fill="#441A0D" transform="rotate(-64.106 97.745 72.369)" cx="97.745" cy="72.369" r="3.159"/><circle fill="#441A0D" transform="rotate(-64.106 104.138 84.47)" cx="104.138" cy="84.47" r="3.159"/><circle fill="#D89687" transform="rotate(-64.106 115.506 90.067)" cx="115.506" cy="90.067" r="3.159"/><circle fill="#D89687" transform="rotate(-64.106 110.443 72.664)" cx="110.443" cy="72.664" r="3.159"/><circle fill="#D89687" transform="rotate(-64.106 111.174 100.461)" cx="111.174" cy="100.461" r="3.159"/><circle fill="#D89687" transform="rotate(-64.106 91.837 84.448)" cx="91.837" cy="84.448" r="3.159"/><circle fill="#AA2322" transform="rotate(-8.522 122.776 135.957)" cx="122.776" cy="135.957" r="15.252"/><circle fill="#441A0D" transform="rotate(-8.522 127.786 127.787)" cx="127.786" cy="127.787" r="2.179"/><circle fill="#441A0D" transform="rotate(-8.522 122.34 144.998)" cx="122.34" cy="144.998" r="2.179"/><circle fill="#441A0D" transform="rotate(-8.522 112.754 131.492)" cx="112.754" cy="131.492" r="2.179"/><circle fill="#441A0D" transform="rotate(-8.522 120.923 135.849)" cx="120.923" cy="135.849" r="2.179"/><circle fill="#D89687" transform="rotate(-8.522 129.31 134.54)" cx="129.31" cy="134.54" r="2.179"/><circle fill="#D89687" transform="rotate(-8.522 119.943 126.807)" cx="119.943" cy="126.807" r="2.179"/><circle fill="#D89687" transform="rotate(-8.522 131.056 141.948)" cx="131.056" cy="141.948" r="2.179"/><circle fill="#D89687" transform="rotate(-8.522 114.06 140.423)" cx="114.06" cy="140.423" r="2.179"/><g transform="translate(153.6 132.902)"><path d="M35.731 3.922C25.164-2.832 11.221.327 4.575 10.894-2.179 21.46.98 35.404 11.547 42.049c3.05 1.961 6.427 3.05 9.913 3.377L39.108 6.318c-1.198-.871-2.288-1.743-3.377-2.396z" fill="#AA2322"/><circle fill="#441A0D" transform="rotate(-57.513 9.375 24.988)" cx="9.375" cy="24.988" r="3.159"/><circle fill="#441A0D" transform="rotate(-57.513 23.387 6.645)" cx="23.387" cy="6.645" r="3.159"/><circle fill="#441A0D" transform="rotate(-57.513 24.465 20.389)" cx="24.465" cy="20.389" r="3.159"/><circle fill="#D89687" transform="rotate(-57.513 17.594 31.046)" cx="17.594" cy="31.046" r="3.159"/><circle fill="#D89687" transform="rotate(-57.513 12.77 13.682)" cx="12.77" cy="13.682" r="3.159"/><path d="M23.966 36.058c-.654 1.09-.654 2.396 0 3.377l2.179-4.793c-.872.109-1.634.653-2.179 1.416zM36.494 11.22c-1.525-.98-3.486-.544-4.358.98-.98 1.526-.545 3.487.98 4.358.327.218.654.327.981.436l2.397-5.774c.109.11.109 0 0 0z" fill="#D89687"/></g><path d="M192.381 26.69a3.161 3.161 0 003.16-3.16c0-.327 0-.544-.11-.871l-5.882 2.287c.545.98 1.634 1.743 2.832 1.743z" fill="#441A0D"/></svg>
